img/aboutme/loc.svg

<svg width="348" height="512" viewBox="0 0 348 512" fill="none" xmlns="http://www.w3.org/2000/svg">
<path d="M165.85 4.23992C261.16 -0.0800753 340.33 73.3099 342.49 168.67C344.32 249.36 297.06 340.51 254.35 406.89C236.18 435.13 216.1 463.29 195.01 489.41C192.12 493 183.44 504.55 180.25 506.39C170.41 512.07 163.75 500.84 158.33 494.37C135.78 467.45 114.28 437.55 95.1498 408.08C51.0798 340.17 3.3898 246.65 6.8398 163.68C10.3798 78.8199 81.0698 8.07992 165.85 4.23992ZM237.71 182.52C237.71 147.74 209.51 119.54 174.73 119.54C139.95 119.54 111.75 147.74 111.75 182.52C111.75 217.3 139.95 245.5 174.73 245.5C209.51 245.5 237.71 217.3 237.71 182.52Z" fill="#E2E2E2"/>
</svg>

<?xml version="1.0" encoding="UTF-8"?>
<svg id="Calque_1" data-name="Calque 1" xmlns="http://www.w3.org/2000/svg" viewBox="0 0 348 512">
  <defs>
    <style>
      .cls-1 {
        fill: #010101;
      }
    </style>
  </defs>
  <path class="cls-1" d="M165.85,4.24C261.16-.08,340.33,73.31,342.49,168.67c1.83,80.69-45.43,171.84-88.14,238.22-18.17,28.24-38.25,56.4-59.34,82.52-2.89,3.59-11.57,15.14-14.76,16.98-9.84,5.68-16.5-5.55-21.92-12.02-22.55-26.92-44.05-56.82-63.18-86.29C51.08,340.17,3.39,246.65,6.84,163.68,10.38,78.82,81.07,8.08,165.85,4.24ZM237.71,182.52c0-34.78-28.2-62.98-62.98-62.98s-62.98,28.2-62.98,62.98,28.2,62.98,62.98,62.98,62.98-28.2,62.98-62.98Z"/>
</svg>
